Newaita-dark/apps/64/albert.svg

<svg height="64pt" viewBox="0 0 64 64" width="64pt" xmlns="http://www.w3.org/2000/svg" xmlns:xlink="http://www.w3.org/1999/xlink"><linearGradient id="a" gradientUnits="userSpaceOnUse" x1="31.75304" x2="31.75304" y1="56.067872" y2="58.71396000006"><stop offset="0" stop-opacity=".27451"/><stop offset="1" stop-opacity="0"/></linearGradient><linearGradient id="b"><stop offset="0" stop-opacity=".313726"/><stop offset=".222222" stop-opacity=".27451"/><stop offset="1" stop-opacity="0"/></linearGradient><radialGradient id="c" cx="450.908936" cy="189.579361" gradientTransform="matrix(.00000035 -.156265 -.281277 -.0000002 106.24586 127.190665)" gradientUnits="userSpaceOnUse" r="21.166656" xlink:href="#b"/><radialGradient id="d" cx="450.908936" cy="189.579361" gradientTransform="matrix(-.00000035 .156265 .281277 .0000002 -42.409041 -15.054958)" gradientUnits="userSpaceOnUse" r="21.166656" xlink:href="#b"/><radialGradient id="e" cx="450.908936" cy="189.579361" gradientTransform="matrix(-.00000035 -.156265 .281277 -.0000002 -42.409041 127.190665)" gradientUnits="userSpaceOnUse" r="21.166656" xlink:href="#b"/><radialGradient id="f" cx="450.908936" cy="189.579361" gradientTransform="matrix(.00000035 .156265 -.281277 .0000002 106.245857 -15.054959)" gradientUnits="userSpaceOnUse" r="21.166656" xlink:href="#b"/><linearGradient id="g" gradientUnits="userSpaceOnUse" x1="31.753048" x2="31.753048" y1="56.067868" y2="5.79220799994"><stop offset="0" stop-color="#616161"/><stop offset="1" stop-color="#757575"/></linearGradient><linearGradient id="h" gradientUnits="userSpaceOnUse" x1="31.753048" x2="31.753048" y1="56.067868" y2="5.79221000013"><stop offset="0" stop-color="#d4e157"/><stop offset="1" stop-color="#dce775"/></linearGradient><path d="m10.253906 56.066406h43.328125v2.648438h-43.328125zm0 0" fill="url(#a)"/><path d="m53.582031 56.066406h5.292969v-2.644531h-5.292969zm0 0" fill="url(#c)"/><path d="m10.253906 56.066406h-5.292968v2.648438h5.292968zm0 0" fill="url(#d)"/><path d="m10.253906 56.066406h-5.292968v-2.644531h5.292968zm0 0" fill="url(#e)"/><path d="m53.582031 56.066406h5.292969v2.648438h-5.292969zm0 0" fill="url(#f)"/><path d="m7.277344 5.792969c-.035156 0-.070313 0-.101563 0-.070312.003906-.136719.011719-.203125.023437-.097656.011719-.195312.035156-.289062.066406-.058594.019532-.121094.039063-.179688.066407-.121094.046875-.234375.109375-.339844.179687-.050781.035156-.101562.074219-.152343.117188-.046875.039062-.09375.082031-.140625.125-.042969.046875-.085938.09375-.125.140625-.023438.027343-.042969.050781-.0625.074219v.003906c-.035156.050781-.070313.101562-.105469.15625-.050781.082031-.09375.167968-.128906.257812-.015625.027344-.027344.058594-.035157.089844-.011718.03125-.023437.058594-.03125.089844-.011718.03125-.019531.0625-.027343.097656-.015625.0625-.03125.125-.039063.191406-.007812.035156-.011718.066406-.015625.101563-.003906.066406-.007812.132812-.007812.203125v46.304687c0 1.101563.882812 1.984375 1.984375 1.984375h48.953125c1.097656 0 1.984375-.882812 1.984375-1.984375v-46.304687c0-.414063-.125-.796875-.339844-1.113282-.035156-.050781-.074219-.101562-.113281-.152343-.039063-.046875-.082031-.09375-.128907-.140625-.042968-.042969-.089843-.085938-.140624-.125-.046876-.042969-.097657-.082032-.152344-.117188-.105469-.070312-.21875-.132812-.335938-.179687-.058594-.027344-.121094-.046875-.183594-.066407-.09375-.03125-.1875-.054687-.289062-.066406-.066406-.011718-.132812-.019531-.199219-.023437-.035156 0-.066406 0-.101562 0zm0 0" fill="url(#g)"/><path d="m7.277344 5.917969c-1.101563 0-1.984375.886719-1.984375 1.984375v.332031c0-1.097656.882812-1.984375 1.984375-1.984375h48.953125c1.097656 0 1.984375.886719 1.984375 1.984375v-.332031c0-1.097656-.886719-1.984375-1.984375-1.984375zm0 0" fill="#fff" fill-opacity=".392157"/><path d="m7.277344 55.875c-1.101563 0-1.984375-.882812-1.984375-1.984375v-.328125c0 1.097656.882812 1.984375 1.984375 1.984375h48.953125c1.097656 0 1.984375-.886719 1.984375-1.984375v.328125c0 1.101563-.886719 1.984375-1.984375 1.984375zm0 0" fill="#030303" fill-opacity=".235294"/><path d="m7.277344 5.605469c-1.199219 0-2.171875.972656-2.171875 2.171875v46.304687c0 1.203125.972656 2.171875 2.171875 2.171875h48.953125c1.199219 0 2.171875-.96875 2.171875-2.171875v-46.304687c0-1.199219-.972656-2.171875-2.171875-2.171875zm0 .375h48.953125c.996093 0 1.796875.796875 1.796875 1.796875v46.304687c0 1-.800782 1.796875-1.796875 1.796875h-48.953125c-1 0-1.796875-.796875-1.796875-1.796875v-46.304687c0-1 .796875-1.796875 1.796875-1.796875zm0 0" fill="#212121"/><path d="m51.597656 17.871094c-3.507812 2.667968-8.414062 6.863281-13.898437 10.507812-2.285157-4.578125-4.3125-9.742187-9.34375-10.398437-8.421875-1.101563-13.238281 6.308593-16.464844 13.445312-.425781.945313-2.476563 5.3125-1.617187 8.144531.824218 2.714844 4.59375 2.136719 7.152343 1.515626 4.273438-1.042969 7.195313-2.257813 10.523438-4.167969 1.625-.949219 3.105469-1.84375 4.464843-2.695313.394532.597656.792969 1.183594 1.203126 1.75 1.863281 2.574219 4.40625 5.171875 6.726562 5.523438 5.617188.382812 9.628906-3.84375 13.234375-7.800782l-.003906-.003906c-5.664063 2.964844-7.863281 2.789063-10.816407 1.171875-1.765624-.972656-3.042968-2.746093-4.175781-4.792969 5.5625-4.078124 8.609375-7.464843 13.015625-12.199218zm-29.171875 3.925781c2.109375-.003906 3.515625 1.769531 4.714844 3.570313 1.351563 2.246093 2.648437 4.601562 4.019531 6.859374-4.03125 2.027344-8.1875 3.40625-12.195312 3.445313-2.910156.027344-6.03125-4.261719-4.238282-7.464844 1.121094-2.007812 2.566407-3.882812 4.046876-4.925781 1.421874-1.054688 2.621093-1.480469 3.652343-1.484375zm0 0" fill="url(#h)"/><path d="m51.597656 17.871094c-3.507812 2.667968-8.414062 6.863281-13.898437 10.507812-2.285157-4.578125-4.3125-9.742187-9.34375-10.398437-8.421875-1.101563-13.238281 6.308593-16.464844 13.445312-.378906.839844-2.039063 4.378907-1.804687 7.144531.1875-2.519531 1.476562-5.265624 1.804687-5.992187 3.226563-7.136719 8.042969-14.546875 16.464844-13.445313 5.03125.65625 7.058593 5.820313 9.34375 10.398438 3.578125-2.378906 6.894531-4.980469 9.753906-7.25 1.324219-1.367188 2.660156-2.8125 4.144531-4.410156zm-37.363281 12.96875c-.375 2.902344 2.253906 6.007812 4.730469 5.984375 4.007812-.039063 8.164062-1.417969 12.195312-3.445313-.179687-.292968-.355468-.589844-.53125-.886718-3.863281 1.878906-7.832031 3.140624-11.664062 3.179687-2.152344.019531-4.414063-2.316406-4.730469-4.832031zm24.8125.039062c-.152344.113282-.304687.230469-.464844.34375 1.132813 2.046875 2.410157 3.820313 4.175781 4.789063 2.582032 1.417969 4.589844 1.730469 8.839844-.195313.675782-.695312 1.335938-1.414062 1.980469-2.121094l-.003906-.003906c-5.664063 2.964844-7.863281 2.789063-10.816407 1.171875-1.527343-.839843-2.691406-2.285156-3.710937-3.984375zm0 0" fill="#fff" fill-opacity=".588235"/><path d="m51.597656 19.078125c-1.261718.960937-2.714844 2.125-4.300781 3.382813-2.550781 2.625-5.101563 4.980468-8.714844 7.628906.160157.285156.316407.5625.480469.832031 5.261719-3.921875 8.257812-7.246094 12.535156-11.84375zm-29.171875 2.738281c-1.03125 0-2.230469.429688-3.652343 1.484375-1.480469 1.042969-2.925782 2.917969-4.046876 4.925781-.472656.839844-.601562 1.757813-.488281 2.652344.066407-.5.222657-.996094.488281-1.464844 1.121094-2.007812 2.566407-3.882812 4.046876-4.925781 4.339843-3.21875 6.582031-.597656 8.367187 2.085938 1.171875 1.941406 2.300781 3.96875 3.46875 5.941406.183594-.085937.367187-.179687.550781-.269531-1.371094-2.257813-2.667968-4.617188-4.019531-6.859375-1.199219-1.804688-2.605469-3.578125-4.714844-3.570313zm9.988281 12.425782c-1.359374.851562-2.839843 1.742187-4.464843 2.695312-3.328125 1.90625-6.25 3.121094-10.523438 4.164062-2.558593.625-6.328125 1.203126-7.152343-1.511718-.097657-.3125-.15625-.640625-.183594-.984375-.058594.765625-.019532 1.511719.183594 2.171875.824218 2.714844 4.59375 2.136718 7.152343 1.511718 4.273438-1.042968 7.195313-2.257812 10.523438-4.164062 1.625-.949219 3.105469-1.84375 4.464843-2.695312.394532.597656.792969 1.179687 1.203126 1.75 1.863281 2.574218 4.40625 5.171874 6.726562 5.523437 5.617188.382813 9.628906-3.84375 13.234375-7.800781l-.003906-.003906c-.734375.386718-1.414063.71875-2.042969 1-3.09375 3.175781-6.605469 5.929687-11.1875 5.617187-2.320312-.351563-4.863281-2.949219-6.726562-5.523437-.410157-.570313-.808594-1.15625-1.203126-1.75zm0 0" fill-opacity=".235294"/><path d="m1559.969223 540.302763c-106.052871 80.661593-254.38517 207.49988-420.196116 317.686214-69.087894-138.411986-130.381257-294.538817-282.492723-314.379443-254.621368-33.303908-400.237391 190.729828-497.787136 406.496636-12.872787 28.579949-74.874743 160.614592-48.892971 246.236341 24.918881 82.07878 138.884382 64.600133 216.239204 45.822398 129.200267-31.532423 217.538293-68.261201 318.15861-126.011595 49.12917-28.698049 93.888677-55.742711 134.987117-81.488286 11.927995 18.069142 23.97409 35.783987 36.374481 52.908336 56.333206 77.827218 133.215632 156.36303 203.366417 166.991936 169.826311 11.573699 291.113947-116.209381 400.119292-235.843632l-.118099-.118099c-171.243499 89.637114-237.733216 84.322661-327.016033 35.42969-53.380732-29.406643-91.999094-83.023573-126.247793-144.90743 168.172925-123.295319 260.290118-225.687121 393.50575-368.823066zm-881.963068 118.689459c63.773441-.118099 106.289069 53.498831 142.545451 107.942454 40.862241 67.906904 80.071098 139.12058 121.523834 207.381781-121.878131 61.293363-247.53543 102.982298-368.704967 104.163287-87.983729.826693-182.344801-128.84597-128.137377-225.687121 33.894403-60.702868 77.59102-117.390371 122.350528-148.922794 42.988023-31.886721 79.244405-44.759508 110.422531-44.877607zm0 0" fill="none" stroke="#212121" stroke-width="11.338583" transform="scale(.0330761)"/></svg>

<?xml version="1.0" encoding="UTF-8"?>
<svg xmlns="http://www.w3.org/2000/svg" xmlns:xlink="http://www.w3.org/1999/xlink" width="64pt" height="64pt" viewBox="0 0 64 64" version="1.1">
<defs>
<linearGradient id="linear0" gradientUnits="userSpaceOnUse" x1="254" y1="233.5" x2="254" y2="254.666672" gradientTransform="matrix(0.125012,0,0,0.125012,-0.00000763012,26.87757)">
<stop offset="0" style="stop-color:rgb(0%,0%,0%);stop-opacity:0.27451;"/>
<stop offset="1" style="stop-color:rgb(0%,0%,0%);stop-opacity:0;"/>
</linearGradient>
<radialGradient id="radial0" gradientUnits="userSpaceOnUse" cx="450.908936" cy="189.579361" fx="450.908936" fy="189.579361" r="21.166656" gradientTransform="matrix(0.000000348341,-0.156265,-0.281277,-0.000000203077,106.24586,127.190665)">
<stop offset="0" style="stop-color:rgb(0%,0%,0%);stop-opacity:0.313726;"/>
<stop offset="0.222222" style="stop-color:rgb(0%,0%,0%);stop-opacity:0.27451;"/>
<stop offset="1" style="stop-color:rgb(0%,0%,0%);stop-opacity:0;"/>
</radialGradient>
<radialGradient id="radial1" gradientUnits="userSpaceOnUse" cx="450.908936" cy="189.579361" fx="450.908936" fy="189.579361" r="21.166656" gradientTransform="matrix(-0.000000348341,0.156265,0.281277,0.000000203077,-42.409041,-15.054958)">
<stop offset="0" style="stop-color:rgb(0%,0%,0%);stop-opacity:0.313726;"/>
<stop offset="0.222222" style="stop-color:rgb(0%,0%,0%);stop-opacity:0.27451;"/>
<stop offset="1" style="stop-color:rgb(0%,0%,0%);stop-opacity:0;"/>
</radialGradient>
<radialGradient id="radial2" gradientUnits="userSpaceOnUse" cx="450.908936" cy="189.579361" fx="450.908936" fy="189.579361" r="21.166656" gradientTransform="matrix(-0.000000348341,-0.156265,0.281277,-0.000000203077,-42.409041,127.190665)">
<stop offset="0" style="stop-color:rgb(0%,0%,0%);stop-opacity:0.313726;"/>
<stop offset="0.222222" style="stop-color:rgb(0%,0%,0%);stop-opacity:0.27451;"/>
<stop offset="1" style="stop-color:rgb(0%,0%,0%);stop-opacity:0;"/>
</radialGradient>
<radialGradient id="radial3" gradientUnits="userSpaceOnUse" cx="450.908936" cy="189.579361" fx="450.908936" fy="189.579361" r="21.166656" gradientTransform="matrix(0.000000348341,0.156265,-0.281277,0.000000203077,106.245857,-15.054959)">
<stop offset="0" style="stop-color:rgb(0%,0%,0%);stop-opacity:0.313726;"/>
<stop offset="0.222222" style="stop-color:rgb(0%,0%,0%);stop-opacity:0.27451;"/>
<stop offset="1" style="stop-color:rgb(0%,0%,0%);stop-opacity:0;"/>
</radialGradient>
<linearGradient id="linear1" gradientUnits="userSpaceOnUse" x1="254" y1="233.5" x2="254" y2="-168.666672" gradientTransform="matrix(0.125012,0,0,0.125012,0,26.877566)">
<stop offset="0" style="stop-color:rgb(38.039216%,38.039216%,38.039216%);stop-opacity:1;"/>
<stop offset="1" style="stop-color:rgb(45.882353%,45.882353%,45.882353%);stop-opacity:1;"/>
</linearGradient>
<linearGradient id="linear2" gradientUnits="userSpaceOnUse" x1="254" y1="233.5" x2="254" y2="-168.666656" gradientTransform="matrix(0.125012,0,0,0.125012,0,26.877566)">
<stop offset="0" style="stop-color:rgb(83.137256%,88.235295%,34.117648%);stop-opacity:1;"/>
<stop offset="1" style="stop-color:rgb(86.274511%,90.588236%,45.882353%);stop-opacity:1;"/>
</linearGradient>
</defs>
<g id="surface1">
<path style=" stroke:none;fill-rule:nonzero;fill:url(#linear0);" d="M 10.253906 56.066406 L 53.582031 56.066406 L 53.582031 58.714844 L 10.253906 58.714844 Z M 10.253906 56.066406 "/>
<path style=" stroke:none;fill-rule:nonzero;fill:url(#radial0);" d="M 53.582031 56.066406 L 58.875 56.066406 L 58.875 53.421875 L 53.582031 53.421875 Z M 53.582031 56.066406 "/>
<path style=" stroke:none;fill-rule:nonzero;fill:url(#radial1);" d="M 10.253906 56.066406 L 4.960938 56.066406 L 4.960938 58.714844 L 10.253906 58.714844 Z M 10.253906 56.066406 "/>
<path style=" stroke:none;fill-rule:nonzero;fill:url(#radial2);" d="M 10.253906 56.066406 L 4.960938 56.066406 L 4.960938 53.421875 L 10.253906 53.421875 Z M 10.253906 56.066406 "/>
<path style=" stroke:none;fill-rule:nonzero;fill:url(#radial3);" d="M 53.582031 56.066406 L 58.875 56.066406 L 58.875 58.714844 L 53.582031 58.714844 Z M 53.582031 56.066406 "/>
<path style=" stroke:none;fill-rule:nonzero;fill:url(#linear1);" d="M 7.277344 5.792969 C 7.242188 5.792969 7.207031 5.792969 7.175781 5.792969 C 7.105469 5.796875 7.039062 5.804688 6.972656 5.816406 C 6.875 5.828125 6.777344 5.851562 6.683594 5.882812 C 6.625 5.902344 6.5625 5.921875 6.503906 5.949219 C 6.382812 5.996094 6.269531 6.058594 6.164062 6.128906 C 6.113281 6.164062 6.0625 6.203125 6.011719 6.246094 C 5.964844 6.285156 5.917969 6.328125 5.871094 6.371094 C 5.828125 6.417969 5.785156 6.464844 5.746094 6.511719 C 5.722656 6.539062 5.703125 6.5625 5.683594 6.585938 C 5.683594 6.589844 5.683594 6.589844 5.683594 6.589844 C 5.648438 6.640625 5.613281 6.691406 5.578125 6.746094 C 5.527344 6.828125 5.484375 6.914062 5.449219 7.003906 C 5.433594 7.03125 5.421875 7.0625 5.414062 7.09375 C 5.402344 7.125 5.390625 7.152344 5.382812 7.183594 C 5.371094 7.214844 5.363281 7.246094 5.355469 7.28125 C 5.339844 7.34375 5.324219 7.40625 5.316406 7.472656 C 5.308594 7.507812 5.304688 7.539062 5.300781 7.574219 C 5.296875 7.640625 5.292969 7.707031 5.292969 7.777344 L 5.292969 54.082031 C 5.292969 55.183594 6.175781 56.066406 7.277344 56.066406 L 56.230469 56.066406 C 57.328125 56.066406 58.214844 55.183594 58.214844 54.082031 L 58.214844 7.777344 C 58.214844 7.363281 58.089844 6.980469 57.875 6.664062 C 57.839844 6.613281 57.800781 6.5625 57.761719 6.511719 C 57.722656 6.464844 57.679688 6.417969 57.632812 6.371094 C 57.589844 6.328125 57.542969 6.285156 57.492188 6.246094 C 57.445312 6.203125 57.394531 6.164062 57.339844 6.128906 C 57.234375 6.058594 57.121094 5.996094 57.003906 5.949219 C 56.945312 5.921875 56.882812 5.902344 56.820312 5.882812 C 56.726562 5.851562 56.632812 5.828125 56.53125 5.816406 C 56.464844 5.804688 56.398438 5.796875 56.332031 5.792969 C 56.296875 5.792969 56.265625 5.792969 56.230469 5.792969 Z M 7.277344 5.792969 "/>
<path style=" stroke:none;fill-rule:nonzero;fill:rgb(100%,100%,100%);fill-opacity:0.392157;" d="M 7.277344 5.917969 C 6.175781 5.917969 5.292969 6.804688 5.292969 7.902344 L 5.292969 8.234375 C 5.292969 7.136719 6.175781 6.25 7.277344 6.25 L 56.230469 6.25 C 57.328125 6.25 58.214844 7.136719 58.214844 8.234375 L 58.214844 7.902344 C 58.214844 6.804688 57.328125 5.917969 56.230469 5.917969 Z M 7.277344 5.917969 "/>
<path style=" stroke:none;fill-rule:nonzero;fill:rgb(1.176471%,1.176471%,1.176471%);fill-opacity:0.235294;" d="M 7.277344 55.875 C 6.175781 55.875 5.292969 54.992188 5.292969 53.890625 L 5.292969 53.5625 C 5.292969 54.660156 6.175781 55.546875 7.277344 55.546875 L 56.230469 55.546875 C 57.328125 55.546875 58.214844 54.660156 58.214844 53.5625 L 58.214844 53.890625 C 58.214844 54.992188 57.328125 55.875 56.230469 55.875 Z M 7.277344 55.875 "/>
<path style=" stroke:none;fill-rule:nonzero;fill:rgb(12.941177%,12.941177%,12.941177%);fill-opacity:1;" d="M 7.277344 5.605469 C 6.078125 5.605469 5.105469 6.578125 5.105469 7.777344 L 5.105469 54.082031 C 5.105469 55.285156 6.078125 56.253906 7.277344 56.253906 L 56.230469 56.253906 C 57.429688 56.253906 58.402344 55.285156 58.402344 54.082031 L 58.402344 7.777344 C 58.402344 6.578125 57.429688 5.605469 56.230469 5.605469 Z M 7.277344 5.980469 L 56.230469 5.980469 C 57.226562 5.980469 58.027344 6.777344 58.027344 7.777344 L 58.027344 54.082031 C 58.027344 55.082031 57.226562 55.878906 56.230469 55.878906 L 7.277344 55.878906 C 6.277344 55.878906 5.480469 55.082031 5.480469 54.082031 L 5.480469 7.777344 C 5.480469 6.777344 6.277344 5.980469 7.277344 5.980469 Z M 7.277344 5.980469 "/>
<path style=" stroke:none;fill-rule:nonzero;fill:url(#linear2);" d="M 51.597656 17.871094 C 48.089844 20.539062 43.183594 24.734375 37.699219 28.378906 C 35.414062 23.800781 33.386719 18.636719 28.355469 17.980469 C 19.933594 16.878906 15.117188 24.289062 11.890625 31.425781 C 11.464844 32.371094 9.414062 36.738281 10.273438 39.570312 C 11.097656 42.285156 14.867188 41.707031 17.425781 41.085938 C 21.699219 40.042969 24.621094 38.828125 27.949219 36.917969 C 29.574219 35.96875 31.054688 35.074219 32.414062 34.222656 C 32.808594 34.820312 33.207031 35.40625 33.617188 35.972656 C 35.480469 38.546875 38.023438 41.144531 40.34375 41.496094 C 45.960938 41.878906 49.972656 37.652344 53.578125 33.695312 L 53.574219 33.691406 C 47.910156 36.65625 45.710938 36.480469 42.757812 34.863281 C 40.992188 33.890625 39.714844 32.117188 38.582031 30.070312 C 44.144531 25.992188 47.191406 22.605469 51.597656 17.871094 Z M 22.425781 21.796875 C 24.535156 21.792969 25.941406 23.566406 27.140625 25.367188 C 28.492188 27.613281 29.789062 29.96875 31.160156 32.226562 C 27.128906 34.253906 22.972656 35.632812 18.964844 35.671875 C 16.054688 35.699219 12.933594 31.410156 14.726562 28.207031 C 15.847656 26.199219 17.292969 24.324219 18.773438 23.28125 C 20.195312 22.226562 21.394531 21.800781 22.425781 21.796875 Z M 22.425781 21.796875 "/>
<path style=" stroke:none;fill-rule:nonzero;fill:rgb(100%,100%,100%);fill-opacity:0.588235;" d="M 51.597656 17.871094 C 48.089844 20.539062 43.183594 24.734375 37.699219 28.378906 C 35.414062 23.800781 33.386719 18.636719 28.355469 17.980469 C 19.933594 16.878906 15.117188 24.289062 11.890625 31.425781 C 11.511719 32.265625 9.851562 35.804688 10.085938 38.570312 C 10.273438 36.050781 11.5625 33.304688 11.890625 32.578125 C 15.117188 25.441406 19.933594 18.03125 28.355469 19.132812 C 33.386719 19.789062 35.414062 24.953125 37.699219 29.53125 C 41.277344 27.152344 44.59375 24.550781 47.453125 22.28125 C 48.777344 20.914062 50.113281 19.46875 51.597656 17.871094 Z M 14.234375 30.839844 C 13.859375 33.742188 16.488281 36.847656 18.964844 36.824219 C 22.972656 36.785156 27.128906 35.40625 31.160156 33.378906 C 30.980469 33.085938 30.804688 32.789062 30.628906 32.492188 C 26.765625 34.371094 22.796875 35.632812 18.964844 35.671875 C 16.8125 35.691406 14.550781 33.355469 14.234375 30.839844 Z M 39.046875 30.878906 C 38.894531 30.992188 38.742188 31.109375 38.582031 31.222656 C 39.714844 33.269531 40.992188 35.042969 42.757812 36.011719 C 45.339844 37.429688 47.347656 37.742188 51.597656 35.816406 C 52.273438 35.121094 52.933594 34.402344 53.578125 33.695312 L 53.574219 33.691406 C 47.910156 36.65625 45.710938 36.480469 42.757812 34.863281 C 41.230469 34.023438 40.066406 32.578125 39.046875 30.878906 Z M 39.046875 30.878906 "/>
<path style=" stroke:none;fill-rule:nonzero;fill:rgb(0%,0%,0%);fill-opacity:0.235294;" d="M 51.597656 19.078125 C 50.335938 20.039062 48.882812 21.203125 47.296875 22.460938 C 44.746094 25.085938 42.195312 27.441406 38.582031 30.089844 C 38.742188 30.375 38.898438 30.652344 39.0625 30.921875 C 44.324219 27 47.320312 23.675781 51.597656 19.078125 Z M 22.425781 21.816406 C 21.394531 21.816406 20.195312 22.246094 18.773438 23.300781 C 17.292969 24.34375 15.847656 26.21875 14.726562 28.226562 C 14.253906 29.066406 14.125 29.984375 14.238281 30.878906 C 14.304688 30.378906 14.460938 29.882812 14.726562 29.414062 C 15.847656 27.40625 17.292969 25.53125 18.773438 24.488281 C 23.113281 21.269531 25.355469 23.890625 27.140625 26.574219 C 28.3125 28.515625 29.441406 30.542969 30.609375 32.515625 C 30.792969 32.429688 30.976562 32.335938 31.160156 32.246094 C 29.789062 29.988281 28.492188 27.628906 27.140625 25.386719 C 25.941406 23.582031 24.535156 21.808594 22.425781 21.816406 Z M 32.414062 34.242188 C 31.054688 35.09375 29.574219 35.984375 27.949219 36.9375 C 24.621094 38.84375 21.699219 40.058594 17.425781 41.101562 C 14.867188 41.726562 11.097656 42.304688 10.273438 39.589844 C 10.175781 39.277344 10.117188 38.949219 10.089844 38.605469 C 10.03125 39.371094 10.070312 40.117188 10.273438 40.777344 C 11.097656 43.492188 14.867188 42.914062 17.425781 42.289062 C 21.699219 41.246094 24.621094 40.03125 27.949219 38.125 C 29.574219 37.175781 31.054688 36.28125 32.414062 35.429688 C 32.808594 36.027344 33.207031 36.609375 33.617188 37.179688 C 35.480469 39.753906 38.023438 42.351562 40.34375 42.703125 C 45.960938 43.085938 49.972656 38.859375 53.578125 34.902344 L 53.574219 34.898438 C 52.839844 35.285156 52.160156 35.617188 51.53125 35.898438 C 48.4375 39.074219 44.925781 41.828125 40.34375 41.515625 C 38.023438 41.164062 35.480469 38.566406 33.617188 35.992188 C 33.207031 35.421875 32.808594 34.835938 32.414062 34.242188 Z M 32.414062 34.242188 "/>
<path style="fill:none;stroke-width:11.338583;stroke-linecap:butt;stroke-linejoin:miter;stroke:rgb(12.941177%,12.941177%,12.941177%);stroke-opacity:1;stroke-miterlimit:4;" d="M 1559.969223 540.302763 C 1453.916352 620.964356 1305.584053 747.802643 1139.773107 857.988977 C 1070.685213 719.576991 1009.39185 563.45016 857.280384 543.609534 C 602.659016 510.305626 457.042993 734.339362 359.493248 950.10617 C 346.620461 978.686119 284.618505 1110.720762 310.600277 1196.342511 C 335.519158 1278.421291 449.484659 1260.942644 526.839481 1242.164909 C 656.039748 1210.632486 744.377774 1173.903708 844.998091 1116.153314 C 894.127261 1087.455265 938.886768 1060.410603 979.985208 1034.665028 C 991.913203 1052.73417 1003.959298 1070.449015 1016.359689 1087.573364 C 1072.692895 1165.400582 1149.575321 1243.936394 1219.726106 1254.5653 C 1389.552417 1266.138999 1510.840053 1138.355919 1619.845398 1018.721668 L 1619.727299 1018.603569 C 1448.4838 1108.240683 1381.994083 1102.92623 1292.711266 1054.033259 C 1239.330534 1024.626616 1200.712172 971.009686 1166.463473 909.125829 C 1334.636398 785.83051 1426.753591 683.438708 1559.969223 540.302763 Z M 678.006155 658.992222 C 741.779596 658.874123 784.295224 712.491053 820.551606 766.934676 C 861.413847 834.84158 900.622704 906.055256 942.07544 974.316457 C 820.197309 1035.60982 694.54001 1077.298755 573.370473 1078.479744 C 485.386744 1079.306437 391.025672 949.633774 445.233096 852.792623 C 479.127499 792.089755 522.824116 735.402252 567.583624 703.869829 C 610.571647 671.983108 646.828029 659.110321 678.006155 658.992222 Z M 678.006155 658.992222 " transform="matrix(0.0330761,0,0,0.0330761,0,0)"/>
</g>
</svg>
